svgs/sharp-thin/cloud-drizzle.svg

<svg xmlns="http://www.w3.org/2000/svg" viewBox="0 0 512 512"><!--! Font Awesome Pro 6.6.0 by @fontawesome - https://fontawesome.com License - https://fontawesome.com/license (Commercial License) Copyright 2024 Fonticons, Inc. --><path d="M400 128l0 16 16 0c44.2 0 80 35.8 80 80l0 80-80 0L96 304l-80 0 0-80c0-34.8 22.2-64.5 53.3-75.5L80 144.8l0-11.3L80 112c0-53 43-96 96-96c32.4 0 61.1 16.1 78.5 40.8l8.9 12.6 12.9-8.4C288.9 52.8 303.9 48 320 48c44.2 0 80 35.8 80 80zM0 320l16 0 80 0 320 0 80 0 16 0 0-16 0-80c0-53-43-96-96-96c0-53-43-96-96-96c-19.3 0-37.3 5.7-52.4 15.5C247.3 18.8 213.9 0 176 0C114.1 0 64 50.1 64 112l0 21.5C26.7 146.6 0 182.2 0 224l0 80 0 16zm64 48l0-8-16 0 0 8 0 56 0 8 16 0 0-8 0-56zm192 0l0-8-16 0 0 8 0 56 0 8 16 0 0-8 0-56zm192 0l0-8-16 0 0 8 0 56 0 8 16 0 0-8 0-56zM160 448l0-8-16 0 0 8 0 56 0 8 16 0 0-8 0-56zm192 0l0-8-16 0 0 8 0 56 0 8 16 0 0-8 0-56z"/></svg>

<svg xmlns="http://www.w3.org/2000/svg" viewBox="0 0 512 512"><!--! Font Awesome Pro 6.5.2 by @fontawesome - https://fontawesome.com License - https://fontawesome.com/license (Commercial License) Copyright 2024 Fonticons, Inc. --><path d="M400 128v16h16c44.2 0 80 35.8 80 80v80H416 96 16V224c0-34.8 22.2-64.5 53.3-75.5L80 144.8V133.5 112c0-53 43-96 96-96c32.4 0 61.1 16.1 78.5 40.8l8.9 12.6 12.9-8.4C288.9 52.8 303.9 48 320 48c44.2 0 80 35.8 80 80zM0 320H16 96 416h80 16V304 224c0-53-43-96-96-96c0-53-43-96-96-96c-19.3 0-37.3 5.7-52.4 15.5C247.3 18.8 213.9 0 176 0C114.1 0 64 50.1 64 112v21.5C26.7 146.6 0 182.2 0 224v80 16zm64 48v-8H48v8 56 8H64v-8V368zm192 0v-8H240v8 56 8h16v-8V368zm192 0v-8H432v8 56 8h16v-8V368zM160 448v-8H144v8 56 8h16v-8V448zm192 0v-8H336v8 56 8h16v-8V448z"/></svg>
